src/lib/packages/icons/src/assets/filled/nut.svg

<svg xmlns="http://www.w3.org/2000/svg" width="24" height="24" fill="none"><path fill="currentColor" d="m18.83 6.82-5.5-3.44c-.82-.51-1.84-.51-2.66 0l-5.5 3.44C4.44 7.27 4 8.08 4 8.94v6.12c0 .86.44 1.67 1.17 2.12l5.5 3.44c.82.51 1.84.51 2.66 0l5.5-3.44c.73-.45 1.17-1.26 1.17-2.12V8.94c0-.86-.44-1.67-1.17-2.12ZM12 15c-1.66 0-3-1.34-3-3s1.34-3 3-3 3 1.34 3 3-1.34 3-3 3Z"/></svg>

<svg width="24" height="24" viewBox="0 0 24 24" fill="none" xmlns="http://www.w3.org/2000/svg">
<path d="M18.83 6.82L13.33 3.38C12.51 2.87 11.49 2.87 10.67 3.38L5.17 6.82C4.44 7.27 4 8.08 4 8.94V15.06C4 15.92 4.44 16.73 5.17 17.18L10.67 20.62C11.49 21.13 12.51 21.13 13.33 20.62L18.83 17.18C19.56 16.73 20 15.92 20 15.06V8.94C20 8.08 19.56 7.27 18.83 6.82ZM12 15C10.34 15 9 13.66 9 12C9 10.34 10.34 8.99999 12 8.99999C13.66 8.99999 15 10.34 15 12C15 13.66 13.66 15 12 15Z" fill="currentColor"/>
</svg>
